src/images/Icons/Red/Experience.svg

<svg fill="none" height="32" viewBox="0 0 32 32" width="32" xmlns="http://www.w3.org/2000/svg"><g fill="#cd6b55"><path d="m21.434 2.66675h4.5146c1.8697 0 3.3847 1.5278 3.3847 3.41328v4.55277c0 1.8855-1.515 3.4133-3.3847 3.4133h-4.5146c-1.8697 0-3.3847-1.5278-3.3847-3.4133v-4.55277c0-1.88548 1.515-3.41328 3.3847-3.41328z" opacity=".4"/><path d="m10.5658 17.9541c1.8697 0 3.3847 1.5278 3.3847 3.4133v4.5527c0 1.8842-1.515 3.4133-3.3847 3.4133h-4.5146c-1.86969 0-3.3847-1.5291-3.3847-3.4133v-4.5527c0-1.8855 1.51501-3.4133 3.3847-3.4133zm15.3827 0c1.8697 0 3.3847 1.5278 3.3847 3.4133v4.5527c0 1.8842-1.515 3.4133-3.3847 3.4133h-4.5146c-1.8697 0-3.3847-1.5291-3.3847-3.4133v-4.5527c0-1.8855 1.515-3.4133 3.3847-3.4133zm-15.3827-15.28735c1.8697 0 3.3847 1.5278 3.3847 3.41328v4.55277c0 1.8855-1.515 3.4133-3.3847 3.4133h-4.5146c-1.86969 0-3.3847-1.5278-3.3847-3.4133v-4.55277c0-1.88548 1.51501-3.41328 3.3847-3.41328z"/></g></svg>

<svg width="32" height="32" viewBox="0 0 32 32" fill="none" xmlns="http://www.w3.org/2000/svg">
<path opacity="0.4" d="M21.434 2.66675H25.9486C27.8183 2.66675 29.3333 4.19455 29.3333 6.08003V10.6328C29.3333 12.5183 27.8183 14.0461 25.9486 14.0461H21.434C19.5643 14.0461 18.0493 12.5183 18.0493 10.6328V6.08003C18.0493 4.19455 19.5643 2.66675 21.434 2.66675Z" fill="#CD6B55"/>
<path d="M10.5658 17.9541C12.4355 17.9541 13.9505 19.4819 13.9505 21.3674V25.9201C13.9505 27.8043 12.4355 29.3334 10.5658 29.3334H6.0512C4.18151 29.3334 2.6665 27.8043 2.6665 25.9201V21.3674C2.6665 19.4819 4.18151 17.9541 6.0512 17.9541H10.5658ZM25.9485 17.9541C27.8182 17.9541 29.3332 19.4819 29.3332 21.3674V25.9201C29.3332 27.8043 27.8182 29.3334 25.9485 29.3334H21.4339C19.5642 29.3334 18.0492 27.8043 18.0492 25.9201V21.3674C18.0492 19.4819 19.5642 17.9541 21.4339 17.9541H25.9485ZM10.5658 2.66675C12.4355 2.66675 13.9505 4.19455 13.9505 6.08003V10.6328C13.9505 12.5183 12.4355 14.0461 10.5658 14.0461H6.0512C4.18151 14.0461 2.6665 12.5183 2.6665 10.6328V6.08003C2.6665 4.19455 4.18151 2.66675 6.0512 2.66675H10.5658Z" fill="#CD6B55"/>
</svg>
